X: 29932
T: O'Sullivan's March
R: jig
M: 6/8
K: Gmajor
|:D|GBA ABd|edB A2 D|GBA B2 G|AGG GED|
GBA ABd|edB A2 D|GBA B2 G|AGG G2:|
|:g|e3 e2d|ege edB|ded dB/c/d|dgB BAG|
cBc dB/c/d|egB A2 D|GBA B2 G|AGG G2:|

